X: 1
T: Reel St Josef
M: C|
L:1/8
K: D
(3ABc|"D" d2fd "A" cdec|"D" defd A2dc|"G" B2gf "Em" edcB|"A" AaaA aABc|
"D" defd "A" cdec|"D" defd A2dc|"G" B2gf "Em" edcB|"A" Agec "D" d2A2:|
|:"D"f3g fedc|"G"BGBd g2ze|"Em"e2ef "E7"edcB|"A7"AaaAa2A2|
"D"f3g fedc|"G"BGBd g2ze|"Em"e2ef "E7"edcB|"A7"Agec "D"d2:|
